!!!COM: Haydn, Franz Joseph
!!!OTL: String Quartet in D Major
!!!OPS: Opus 76
!!!ONM: No. 5
!!!OMD: Allegretto
!!!OMV: 1
!!!SCT: H III:79
!!!SCA: Thematisch-bibliographisches Werkevererzeichnis (A. van Hoboken)
!!!YOR: Trautwein Edition
!!!ENC: Frances Bennion
!!!CDT: 1732/3/31/-1809/5/31/
!!!CNT: Oesterreich
!!!YEC: Copyright (c) 1994, 2000 Center for Computer Assisted Research in the Humanities
!!!YEM: Rights to all derivative editions reserved.
!!!YEM: Refer to licensing agreement for further details.
!!!YEN: United States of America
**kern	**kern	**kern	**kern
*k[f#c#]	*k[f#c#]	*k[f#c#]	*k[f#c#]
*D:	*D:	*D:	*D:
*clefF4	*clefC3	*clefF	*clefF
*M6/8	*M6/8	*M6/8	*M6/8
2r	2r	2r	3..r
8r	8r	8r	.
.	.	.	24r
8r	8r	8r	8a
=1	=1	=1	=1
8D	8d	8f# 8A	8.dd
8r	8r	8r	.
.	.	.	16cc#
8D	8d	8f# 8A	8dd
[4.D	4c#	4.A 4.g	8ee
.	.	.	8cc#
.	8e	.	8a
=2	=2	=2	=2
8D]	4A	8f# 8A	8dd
8C#	.	8g	8ee
8C	8d	8a	8ff#
8BB	[4.d	4g	4gg
8B	.	.	.
8A	.	8a	8ff#
=3	=3	=3	=3
[2G	4.d]	4.b	8.ee
.	.	.	16ff#
.	.	.	8ee
.	4B	[4.e	8bb
8G]	.	.	8gg
8G#	16d	.	8ee
.	16B	.	.
=4	=4	=4	=4
8A	8A	8e]	16dd
.	.	.	16cc#
8r	8r	8r	16ee
.	.	.	16cc#
8E	16B	8g#	16dd
.	16d	.	16b
8AA	8c#	8a	8a
4r	8d	8g#	8b
.	8e	8g	8cc#
=5	=5	=5	=5
8DD	8f#	8f# 8A	8.dd
8r	8r	8r	.
.	.	.	16cc#
8D	8d	8f# 8A	8dd
[4.D	4c#	4.A 4.g	8ee
.	.	.	8cc#
.	8e	.	8a
=6	=6	=6	=6
8D]	4A	8f# 8A	8dd
8C#	.	8g	8ee
8C	8d	8a	8ff#
8BB	[4.d	4g	4gg
8B	.	.	.
8A	.	8a	8ff#
=7	=7	=7	=7
4.G	2.d_	4.b	8.ee
.	.	.	16ff#
.	.	.	8ee
4.G#	.	4.e#	8bb
.	.	.	8ccc#
.	.	.	8ddd
=8	=8	=8	=8
4A	8d]	8.f#	8.dd
.	8A	.	.
.	.	16g	16ee
8AA	8G	8e	8cc#
8D	8F#	8f#	8dd
4r	4r	4r	8r
.	.	.	8a
=9	=9	=9	=9
8D	8d	8A 8f#	8.dd
8r	8r	8r	.
.	.	.	16cc#
8D	8d	8A 8f#	8dd
[4.D	4c#	4.A 4.g	8ee
.	.	.	16dd
.	.	.	16cc#
.	8e	.	16b
.	.	.	16a
=10	=10	=10	=10
8D]	4A	8f#	8dd
8C#	.	8g	8ee
8C	8d	8a	8ff#
8BB	[4.d	4g	4gg
8B	.	.	.
8A	.	8a	8ff#
=11	=11	=11	=11
[2G	4.d]	4.b	8.ee
.	.	.	32gg
.	.	.	32ff#
.	.	.	16ee
.	.	.	16aa#
.	4.B	[4.e	16ccc#
.	.	.	16bb
8G]	.	.	16aa
.	.	.	16gg
8G#	.	.	16ff#
.	.	.	16ee
=12	=12	=12	=12
8A	8A	8e]	16dd
.	.	.	16cc#
8r	8r	8r	16ee
.	.	.	16cc#
8E	16B	8g#	16dd
.	16d	.	16b
8AA	8c#	8a	8a
4r	8d	8g#	8b
.	8e	8g	8cc#
=13	=13	=13	=13
8DD	8d	8f# 8A	8.dd
8r	8r	8r	.
.	.	.	16cc#
8D	8A	8f# 8A	8dd
[4.D	4c#	4.g [4.A	8ee
.	.	.	16dd
.	.	.	16cc#
.	8e	.	16b
.	.	.	16a
=14	=14	=14	=14
8D]	4A	8f# 8A]	8dd
8C#	.	8g	8ee
8C	8d	8a	8ff#
8BB	[4.d	4g	4gg
8B	.	.	.
8A	.	8a	8ff#
=15	=15	=15	=15
4.G	2.d_	[2.b	8.ee
.	.	.	32gg
.	.	.	32ff#
.	.	.	8ee
4.GG	.	.	8bb
.	.	.	8gg
.	.	.	8ee#
=16	=16	=16	=16
4FF#	8d]	8b]	8ff#
.	8B	16f#	16dd
.	.	16d	16b
8FF#	16A#	16e	16cc#
.	16c#	16c#	16a#
4BB	4B	4d	4b
8r	8r	8r	8dd
=17	=17	=17	=17
4F#	4A	4c	8.d
.	.	.	16e
8F#	8A	8c	8d
8G	8G	8B	8d
4r	4r	4r	8g
.	.	.	8b
=18	=18	=18	=18
4D#	4F#	4A	8.B
.	.	.	16c
8D#	8F#	8A	8B
4E	8G	8G	8B
.	8g	8r	8e
8D	8g	8b	8gg
=19	=19	=19	=19
4C#	8g	8e	8.a
.	8e	8a	.
.	.	.	16gg
8D	8d	8a	8ff#
4G	8d	4.b	8ff#
.	8e	.	8ee
8G#	8e	.	8dd
=20	=20	=20	=20
8A	8e	8e	16dd
.	.	.	16cc#
8r	8r	8r	16ee
.	.	.	16cc#
8E	16B	8g#	16b
.	16d	.	16g#
8AA	8c#	8a	8a
4r	8d	8g#	8b
.	8e	8g	8cc#
=21	=21	=21	=21
8DD	8d	8f# 8A	8.dd
8r	8r	8r	.
.	.	.	16cc#
8D	8A	8A 8f#	8dd
[4.D	4c#	4.A 4.g	8ee
.	.	.	16dd
.	.	.	16cc#
.	8e	.	16b
.	.	.	16a
=22	=22	=22	=22
8D]	4A	8.A 8.f#	16dd
.	.	.	16cc#
8C#	.	.	16dd
.	.	16g	16ee
8C	8d	8a	16ff
.	.	.	16ff#
8BB	[4.d	4g	4gg
8B	.	.	.
8A	.	8a	8ff#
=23	=23	=23	=23
[2G	4.d]	4.b	8.ee
.	.	.	32gg
.	.	.	32ff#
.	.	.	16ee
.	.	.	16bb
.	4.B	[4.e	16b
.	.	.	16bb
8G]	.	.	16aa
.	.	.	16gg
8G#	.	.	16ff#
.	.	.	16ee
=24	=24	=24	=24
8A	8A	8e]	16dd
.	.	.	16cc#
8r	8r	8r	16ee
.	.	.	16cc#
8E	16B	8g#	16dd
.	16d	.	16b
8AA	8c#	8a	16a
.	.	.	16aa
4r	8d	8g#	16b
.	.	.	16aa
.	8e	8g	16cc#
.	.	.	16aa
=25	=25	=25	=25
8DD	8d	8f#	16dd
.	.	.	16aa
8r	8r	8e	16cc#
.	.	.	16aa
8D	8A	8f#	16dd
.	.	.	16aa
[4.D	4c#	4.g 4.A	16ff#
.	.	.	16ee
.	.	.	16dd
.	.	.	16cc#
.	8e	.	16b
.	.	.	16a
=26	=26	=26	=26
8D]	4A	8A 8f#	8dd
8C#	.	8g	8ee
8C	8d	8a	8ff#
4BB	[4.d	4g	4gg
8BB-	.	8d	8gg#
=27	=27	=27	=27
2.AA	4.d]	4.f#	16aa
.	.	.	16ff#
.	.	.	16ddd
.	.	.	16aa
.	.	.	16ff#
.	.	.	16dd
.	8c#	4.g	8a
.	8d	.	8b
.	8e	.	8cc#
=28	=28	=28	=28
8D	8d	8f#	8.dd
8r	8r	8r	.
.	.	.	16a
8DD	8A	8f#	8ff#
8DD	8F#	8f#	8dd
8r	4r	4r	8r
8AA	.	.	8r
=29	=29	=29	=29
8.D	2.r	2.r	8r
.	.	.	8r
16C#	.	.	.
8D	.	.	8d
8E	.	.	16d
.	.	.	16c#
8C#	.	.	[4e
8AA	.	.	.
=30	=30	=30	=30
8.F	4r	2.r	16e]
.	.	.	16A
.	.	.	16B
16E	.	.	16c#
8F	8A	.	16d
.	.	.	16f
8G	8.B-	.	16f
.	.	.	16e
8E	.	.	[4g
.	32A	.	.
.	32B-	.	.
8C	16c	.	.
.	16B-	.	.
=31	=31	=31	=31
8.A	4A	4.c	16g]
.	.	.	16c
.	.	.	16d
16G	.	.	16e
8A	2r	.	16f
.	.	.	16a
8B-	.	8.d	16a
.	.	.	16d
8G	.	.	8.b-
.	.	32e	.
.	.	32f	.
8E	.	8g	.
.	.	.	16g
=32	=32	=32	=32
8c	2.r	8r	16f
.	.	.	16e
8A	.	8e	8.cc
8F	.	8a	.
.	.	.	16a
8d	.	8r	16g
.	.	.	16f
8B-	.	8f	8.dd
8G	.	8b-	.
.	.	.	16b-
=33	=33	=33	=33
4.E	8r	8r	16a
.	.	.	16g
.	8c	8b-	16gg
.	.	.	16ee
.	8g	8b-	16cc
.	.	.	16b-
4F	4c	8a	16a
.	.	.	16b-
.	.	8a	16cc
.	.	.	16dd
8D	8d	8a	16ee
.	.	.	16ff
=34	=34	=34	=34
8BB-	8G	8dd	8gg
8GG	8d	8b-	8bb-
8C	16c	8g	8ee
.	16B-	.	.
4FF	16A	16a	8ff
.	16g	16b-	.
.	16a	16cc	8r
.	16b-	16dd	.
8r	16g	16ee	8r
.	16a	16ff	.
=35	=35	=35	=35
8C	8b-	8ee	16gg
.	.	.	16aa
8r	8r	8r	16bb-
.	.	.	16ccc
8C	8g	8b-	16ddd
.	.	.	16eee
8F	16f	16a	8fff
.	16g	16b-	.
4r	16a	16cc	8r
.	16b-	16dd	.
.	16g	16ee	8r
.	16a	16ff	.
=36	=36	=36	=36
8C	8b-	8ee	16ggg
.	.	.	16aaa
8r	8r	8r	16bbb-
.	.	.	16cccc
8c	8g	8bb-	16dddd
.	.	.	16eeee
8f	8a	8aa	8ffff
4r	4r	8r	8r
.	.	8c	8r
=37	=37	=37	=37
2.r	8r	8.f	2.r
.	8r	.	.
.	.	16e	.
.	8.F	8f	.
.	.	8g	.
.	16E	.	.
.	[4G	8e	.
.	.	8c	.
=38	=38	=38	=38
2.r	16G]	8.a	2.r
.	16C	.	.
.	16D	.	.
.	16E	16g	.
.	16F	8a	.
.	16A	.	.
.	16A	8b-	.
.	16G	.	.
.	[4B-	8g	.
.	.	8e	.
=39	=39	=39	=39
4.r	16B-]	8cc	8r
.	16A	.	.
.	4c	8a	8r
.	.	8f#	8dd
4.G	8B-	4d	8.gg
.	4r	.	.
.	.	.	16ff#
.	.	[8g	8gg
=40	=40	=40	=40
4.D	8r	16g]	8aa
.	.	16f#	.
.	8cc	16a	8ff#
.	.	16b-	.
.	8f#	16cc	8dd
.	.	16a	.
4.G	4g	4d	8.bb-
.	.	.	16aa
.	8r	[8b-	8bb-
=41	=41	=41	=41
4.F	8r	16b-]	8ccc
.	.	16a	.
.	8ee-	16cc	8aa
.	.	16dd	.
.	8a	16ee-	8ff
.	.	16cc	.
32BB-	16b-	8f	[8ddd
32D	.	.	.
32BB-	16f	.	.
32D	.	.	.
32BB-	16f	16r	16ddd]
32D	.	.	.
32BB-	16f	16d	32ccc
32D	.	.	32bb-
32BB-	16f	16f	32aa
32D	.	.	32gg
32BB-	16f	16b-	32ff
32D	.	.	32ee-
=42	=42	=42	=42
32BB-	16f	32dd	8dd
32D	.	32cc	.
32BB-	16f	32b-	.
32D	.	32a	.
32BB-	16f	32g	16r
32D	.	32f	.
32BB-	16f	32e-	16ff
32D	.	32d	.
32BB-	16f	32c	16bb-
32D	.	32B-	.
32BB-	16f	32A	16ddd
32D	.	32B-	.
32AA	16f	8c	[8eee-
32F	.	.	.
32AA	16e- 16c	.	.
32F	.	.	.
32AA	16e- 16c	16r	16eee-]
32F	.	.	.
32AA	16e- 16c	16f	32ddd
32F	.	.	32ccc
32AA	16e- 16c	16a	32bb-
32F	.	.	32aa
32AA	16e- 16c	16cc	32gg
32F	.	.	32ff
=43	=43	=43	=43
32AA	16e- 16c	32ee-	8ee-
32F	.	32dd	.
32AA	16c 16e-	32cc	.
32F	.	32b-	.
32AA	16e- 16c	32a	16r
32F	.	32g	.
32AA	16e- 16c	32f	16ff
32F	.	32e-	.
32AA	16e- 16c	32d	16aa
32F	.	32c	.
32AA	16e- 16c	32B-	16ccc
32F	.	32A	.
32BB-	16B- 16d	8B-	[8ddd
32F	.	.	.
32BB-	16B- 16d	.	.
32F	.	.	.
32BB-	16B- 16d	16r	16ddd]
32F	.	.	.
32BB-	16B- 16d	16d	32ccc
32F	.	.	32bb-
32BB-	16B- 16d	16f	32aa
32F	.	.	32gg
32BB-	16d 16B-	16b-	32ff
32F	.	.	32ee-
=44	=44	=44	=44
32BB-	16d 16B-	32dd	8dd
32F	.	32cc	.
32BB-	16d 16B-	32b-	.
32F	.	32a	.
32BB-	16d 16B-	32g	16r
32F	.	32f	.
32BB-	16d 16B-	32e-	16ff
32F	.	32d	.
32BB-	16d 16B-	32c	16bb-
32F	.	32B-	.
32BB-	16B- 16d	32A	16ddd
32F	.	32B-	.
32AA	16E- 16c	8c	[8eee-
32F	.	.	.
32AA	16e- 16c	.	.
32F	.	.	.
32AA	16e- 16c	16r	16eee-]
32F	.	.	.
32AA	16e- 16c	16f	32ddd
32F	.	.	32ccc
32AA	16e- 16c	16a	32bb-
32F	.	.	32aa
32AA	16e- 16c	16cc	32gg
32F	.	.	32ff
=45	=45	=45	=45
32AA	16e- 16c	32ee-	8ee-
32F	.	32dd	.
32AA	16e- 16c	32cc	.
32F	.	32b-	.
32AA	16e- 16c	32a	16r
32F	.	32g	.
32AA	16e- 16c	32f	16ff
32F	.	32e-	.
32AA	16e- 16c	32d	16aa
32F	.	32c	.
32AA	16e- 16c	32B-	16ccc
32F	.	32A	.
32AA-	16d 16B-	8B-	[12..fff
32F	.	.	.
32AA-	16B- 16d	.	.
32F	.	.	.
32AA-	16d 16B-	16r	.
.	.	.	96fff]
32F	.	.	32eee-
32AA-	16d 16B-	16b-	32ddd
32F	.	.	32ccc
32AA-	16d 16B-	16dd	32bb-
32F	.	.	32aa
32AA-	16B- 16d	16ff	32gg
32F	.	.	32ff
=46	=46	=46	=46
8GG	8e- 8B-	8e- 8b- 8gg	8ee-
8EE-	8e- 8B-	8gg 8b- 8e-	8ggg
2r	2r	2r	4.r
.	.	.	8r
=47	=47	=47	=47
8.e-	8.g	8.cc	8.ccc
16f	16a-	16dd	16bb
8e-	8g	8cc	8ccc
8c	8e-	8gg	8eee-
8d	8f	8ff	8ddd
8e-	8g	8ee-	8ccc
=48	=48	=48	=48
8f	8f	8dd	8bb-
4r	4r	4r	8r
.	.	.	8r
8F	8ee-	8cc	8aa
4r	8r	4r	8r
.	8f	.	8r
=49	=49	=49	=49
8r	8.b-	2r	2.r
8r	.	.	.
.	16a	.	.
8.B-	8b-	.	.
.	8cc	.	.
32A	.	.	.
32B-	.	.	.
32c	16a	8r	.
32B-	.	.	.
32A	16f	.	.
32G	.	.	.
32F	16a	8f	.
32E-	.	.	.
32D	16cc	.	.
32C	.	.	.
=50	=50	=50	=50
8BB-	8dd	8.dd	4r
8r	8f	.	.
.	.	16cc#	.
8.d	8f	8dd	4r
.	4.g	8ee	.
32c#	.	.	.
32d	.	.	.
32e	.	16cc#	8r
32d	.	.	.
32c#	.	16a	.
32B-	.	.	.
32A	.	16cc#	8a
32G	.	.	.
32F	.	16ee	.
32E	.	.	.
=51	=51	=51	=51
8D	8a	8ff	8.ff
2r	8r	8a	.
.	.	.	16ee
.	8.f	8a	8ff
.	.	4.b-	8gg
.	32e	.	.
.	32f	.	.
.	32g	.	16ee
.	32f	.	.
.	32e	.	16cc
.	32d	.	.
8r	32c	.	16ee
.	32B-	.	.
.	32A	.	16gg
.	32G	.	.
=52	=52	=52	=52
4r	8F	8cc	16aa
.	.	.	32aa
.	.	.	32bb-
.	8r	8r	32ccc
.	.	.	32bb-
.	.	.	32aa
.	.	.	32gg
8f	8a	8.r	32ff
.	.	.	32ee
.	.	.	32dd
.	.	.	32cc
[4.e	4.g	.	8b-
.	.	32gg	.
.	.	32aa	.
.	.	32bb-	8r
.	.	32aa	.
.	.	32gg	.
.	.	32ff	.
.	.	32ee	8r
.	.	32dd	.
.	.	32cc	.
.	.	32b-	.
=53	=53	=53	=53
8e]	4.f	8a	16r
.	.	.	32ff
.	.	.	32gg
4.d	.	8r	32aa
.	.	.	32gg
.	.	.	32ff
.	.	.	32ee
.	.	8.r	32dd
.	.	.	32cc
.	.	.	32b-
.	.	.	32a
.	4.e	.	8g
.	.	32ee	.
.	.	32ff	.
4c#	.	32gg	8r
.	.	32ff	.
.	.	32ee	.
.	.	32dd	.
.	.	32cc#	8r
.	.	32b-	.
.	.	32a	.
.	.	32g	.
=54	=54	=54	=54
16d	16d	16f	16r
32F	32f	32f	32f
32G	32g	32g	32g
32A	32a	32a	32a
32G	32g	32g	32g
32F	32f	32f	32f
32E	32e	32e	32e
32D	32d	32d	32d
32C	32c	32c	32c
32BB-	32B-	32B-	32B-
32AA	32A	32A	32A
4.GG#	4.G#	8G#	8G#
.	.	8d	8f
.	.	8d	8f
=55	=55	=55	=55
[2.AA	8A	8c#	16e
.	.	.	32c#
.	.	.	32d
.	8r	8r	32e
.	.	.	32d
.	.	.	32c#
.	.	.	32B
.	8c#	8e	16A
.	.	.	16g
.	8d	8f	16f
.	.	.	32f
.	.	.	32g
.	8r	8r	32a
.	.	.	32g
.	.	.	32f
.	.	.	32e
.	8f	8a	16d
.	.	.	16dd
=56	=56	=56	=56
2.AA_	8e	8g	16cc#
.	.	.	32cc#
.	.	.	32dd
.	8r	8r	32ee
.	.	.	32dd
.	.	.	32cc#
.	.	.	32b
.	8e	8cc#	32a
.	.	.	32cc#
.	.	.	32ee
.	.	.	32gg
.	8f	8dd	16ff
.	.	.	32ff
.	.	.	32gg
.	8r	8r	32aa
.	.	.	32gg
.	.	.	32ff
.	.	.	32ee
.	8d	8ff	32dd
.	.	.	32ff
.	.	.	32aa
.	.	.	32ddd
=57	=57	=57	=57
8AA]	8a	8ee	8ccc#
8AA	8A	8a	8a
8AA	8A	8a	8a
8AA	8A	8a	8a
4r	4r	4r	8r
.	.	.	8a
=58	=58	=58	=58
8DD	8d	8f# 8A	8.dd
8r	8r	8r	.
.	.	.	16cc#
8D	8d	8A 8f#	8dd
[4.D	4c#	4.g 4.A	8ee
.	.	.	8cc#
.	8e	.	8a
=59	=59	=59	=59
8D]	4A	8f#	8dd
8C#	.	8g	8ee
8C	8d	8a	8ff#
8BB	[4.d	4g	4gg
8B	.	.	.
8A	.	8a	8ff#
=60	=60	=60	=60
[2G	4.d]	4.b	8.ee
.	.	.	32gg
.	.	.	32ff#
.	.	.	16ee
.	.	.	16aa#
.	4.B	[4.e	16ccc#
.	.	.	16bb
8G]	.	.	16aa
.	.	.	16gg
8G#	.	.	16ff#
.	.	.	16ee
=61	=61	=61	=61
8A	8A	8e]	16dd
.	.	.	16cc#
8r	8r	8r	16ee
.	.	.	16cc#
8E	16B	8g#	16dd
.	16d	.	16b
8AA	8c#	8a	8a
4r	8d	8g#	8b
.	8e	8g	8cc#
=62	=62	=62	=62
8DD	8d	8f# 8A	32dd
.	.	.	32d
.	.	.	32c#
.	.	.	32d
4r	4r	4r	32e
.	.	.	32f#
.	.	.	32g
.	.	.	32a
.	.	.	32b
.	.	.	32cc#
.	.	.	32dd
.	.	.	32dd#
[4.D	4c#	4.A 4.g	8ee
.	.	.	16cc#
.	.	.	16ee
.	8e	.	16cc#
.	.	.	16a
=63	=63	=63	=63
16D]	16A	16f#	16dd
16D	16A	16f#	16dd
16C#	16A	16g	16ee
16C#	16A	16g	16ee
16C	16d	16a	16ff#
16C	16d	16a	16ff#
8BB	[4.d	4g	4gg
8B	.	.	.
8A	.	8a	8ff#
=64	=64	=64	=64
4.G	2.d_	[2.b	32ee
.	.	.	32ff#
.	.	.	32gg
.	.	.	32ff#
.	.	.	32ee
.	.	.	32ff#
.	.	.	32gg
.	.	.	32ff#
.	.	.	32ee
.	.	.	32ff#
.	.	.	32gg
.	.	.	32aa
4.GG	.	.	8bb
.	.	.	8gg
.	.	.	8ee#
=65	=65	=65	=65
4FF#	8d]	8b]	8ff#
.	8B	16f#	16dd
.	.	16d	16b
8FF#	16A#	16e	16cc#
.	16c#	16c#	16a#
4BB	4B	4d	4b
8r	8r	8r	8dd
=66	=66	=66	=66
4F#	4A	4c	[12..d
.	.	.	96d]
.	.	.	32e
.	.	.	32d
.	.	.	32e
8F#	8A	8c	32d
.	.	.	32e
.	.	.	32d
.	.	.	32e
8G	8G	8B	8d
4r	4r	4r	8g
.	.	.	8b
=67	=67	=67	=67
4D#	4F#	4A	[12..B
.	.	.	96B]
.	.	.	32c
.	.	.	32B
.	.	.	32c
8D#	8F#	8A	32B
.	.	.	32c
.	.	.	32B
.	.	.	32c
4E	8G	8G	8B
.	8g	8r	8e
8D	8g	8b	8gg
=68	=68	=68	=68
4C#	8g	8e	32a
.	.	.	32b
.	.	.	32cc#
.	.	.	32dd
.	8e	8a	32ee
.	.	.	32ff#
.	.	.	32gg
.	.	.	32aa
8D	8d	8a	16gg
.	.	.	16ff#
4G	8d	4.b	16ff#
.	.	.	16ee
.	8e	.	16bb
.	.	.	16gg
8G#	8e	.	16ee
.	.	.	16dd
=69	=69	=69	=69
8A	8e	8e	16dd
.	.	.	16cc#
8r	8r	8r	16ee
.	.	.	16cc#
8E	16B	8g#	16b
.	16d	.	16g#
8AA	8c#	8a	8a
4r	8d	8g#	8b
.	8e	8g	8cc#
=70	=70	=70	=70
8DD	8d	8A 8f#	8.dd
8r	8r	8r	.
.	.	.	16cc#
8D	8A	8f# 8A	8dd
[4.D	4c#	4.A 4.g	8ee
.	.	.	16dd
.	.	.	16cc#
.	8e	.	16b
.	.	.	16a
=71	=71	=71	=71
8D]	4A	8A 8f#	16r
.	.	.	16dd
8C#	.	8g	16r
.	.	.	16ee
8C	8d	8a	16r
.	.	.	16ff#
4BB	[4.d	4g	4gg
8BB-	.	8d	8gg#
=72	=72	=72	=72
2.AA	4.d]	4.f#	16aa
.	.	.	16ff#
.	.	.	16ddd
.	.	.	16aa
.	.	.	16ff#
.	.	.	16dd
.	8c#	4.g	8a
.	8d	.	8b
.	8e	.	8cc#
=73	=73	=73	=73
2.BB	2.d	4.f#	16dd
.	.	.	16b
.	.	.	16ff#
.	.	.	16dd
.	.	.	16b
.	.	.	16f#
.	.	4.G#	16d
.	.	.	16B
.	.	.	16G#
.	.	.	16d
.	.	.	16B
.	.	.	16G#
=74	=74	=74	=74
[2.AA	2.c#	2.G	16A
.	.	.	16c#
.	.	.	16e
.	.	.	16g
.	.	.	16cc#
.	.	.	16ee
.	.	.	16gg
.	.	.	16ff#
.	.	.	16aa
.	.	.	16gg
.	.	.	24bb
.	.	.	24gg
.	.	.	24ee
=75	=75	=75	=75
2AA_	[2e	[2g	4.dd
.	.	.	4cc#
8AA]	8e]	8g]	.
8r	8r	8a	8r
=76	=76	=76	=76
2.r	16f#	8.dd	4r
.	16a	.	.
.	16f#	.	.
.	16a	16cc#	.
.	16f#	8dd	4r
.	16a	.	.
.	16g	8ee	.
.	16a	.	.
.	16g	8cc#	8r
.	16a	.	.
.	16g	8a	8aa
.	16a	.	.
=77	=77	=77	=77
2.r	16f#	8ff#	8.ddd
.	16a	.	.
.	16f#	2r	.
.	16a	.	16ccc#
.	16f#	.	8ddd
.	16a	.	.
.	16g	.	8eee
.	16a	.	.
.	16g	.	8ccc#
.	16a	.	.
.	16g	8a	8aa
.	16a	.	.
=78	=78	=78	=78
4d	16f#	8.dd	4fff#
.	16a	.	.
.	16f#	.	.
.	16a	16cc#	.
8r	16f#	8dd	4r
.	16a	.	.
4A	16g	8ee	.
.	16a	.	.
.	16g	8cc#	8r
.	16a	.	.
8r	16g	8a	8aa
.	16a	.	.
=79	=79	=79	=79
4D	16f#	8ff#	8.ddd
.	16a	.	.
.	16f#	2r	.
.	16a	.	16ccc#
8r	16f#	.	8ddd
.	16a	.	.
4AA	16g	.	8eee
.	16a	.	.
.	16g	.	8ccc#
.	16a	.	.
8r	16g	8a	8aa
.	16a	.	.
=80	=80	=80	=80
4DD	16f#	8.dd	4fff#
.	16a	.	.
.	16f#	.	.
.	16a	16cc#	.
4.r	16f#	8dd	4r
.	16a	.	.
.	16g	8ee	.
.	16a	.	.
.	16g	8cc#	8r
.	16a	.	.
8AA	16g	8a	16aa
.	16a	.	16gg
=81	=81	=81	=81
8.D	8.d	8ff#	16ff#
.	.	.	16gg
.	.	2r	16ff#
16C#	16e	.	16ee
8D	8f#	.	8.dd
8E	8g	.	.
.	.	.	16cc#
8C#	8e	.	[4ee
8AA	8c#	8r	.
=82	=82	=82	=82
8.F#	8.a	2.r	16ee]
.	.	.	16a
.	.	.	16b
16E	16g	.	16cc#
8F#	8a	.	16dd
.	.	.	8ff#
8G	8b	.	.
.	.	.	16ee
8E	8g	.	[4gg
8C#	8e	.	.
=83	=83	=83	=83
8.A	8.cc#	2.r	16gg]
.	.	.	16cc#
.	.	.	16dd
16G	16b	.	16ee
8A	8cc#	.	16ff#
.	.	.	8aa
8B	4dd	.	.
.	.	.	16gg
8G	.	.	[4bb
8E	16g	.	.
.	16f#	.	.
=84	=84	=84	=84
4C#	4.e	2r	16bb]
.	.	.	16ee
.	.	.	16aa
.	.	.	16bb
8c#	.	.	16aa
.	.	.	16gg
8d	4f#	.	16ff#
.	.	.	16ee
8B	.	8r	16dd
.	.	.	16ff#
8G#	8g#	8e	16ee
.	.	.	16dd
=85	=85	=85	=85
4AA	8a	8.a	4cc#
.	8r	.	.
.	.	16g#	.
8r	8.A	8a	4.r
4EE	.	8b	.
.	16G#	.	.
.	[4B	8g#	.
8r	.	8e	8r
=86	=86	=86	=86
4AA	16B]	8.cc#	2.r
.	16E	.	.
.	16F#	.	.
.	16G#	16b	.
8F#	16A	8cc#	.
.	8c#	.	.
4.BB	.	8dd	.
.	16B	.	.
.	[4d	8b	.
.	.	8g#	.
=87	=87	=87	=87
4C#	16d]	8ee	8r
.	16c#	.	.
.	16e	8cc#	4.r
.	16d	.	.
2r	16c#	8a	.
.	16B	.	.
.	16A	8gg	.
.	16B	.	.
.	16c#	8ee	8r
.	16d	.	.
.	16e	8cc#	8a
.	16g	.	.
=88	=88	=88	=88
2.r	4f#	16dd	8.dd
.	.	16a	.
.	.	16f#	.
.	.	16a	16cc#
.	8r	16f#	8dd
.	.	8d	.
.	4.A	.	8ee
.	.	16c#	.
.	.	[4e	8cc#
.	.	.	8a
=89	=89	=89	=89
2.r	4D	16e]	8.ff#
.	.	16A	.
.	.	16B	.
.	.	16c#	16ee
.	8B	16d	8ff#
.	.	8f#	.
.	4.E	.	8gg
.	.	16e	.
.	.	[4g	8ee
.	.	.	8cc#
=90	=90	=90	=90
2.r	4F#	16g]	8aa
.	.	16f#	.
.	.	16a	8ff#
.	.	16b	.
.	8A	16cc	8dd
.	.	16a	.
.	4B	16f#	8dd#
.	.	16e	.
.	.	16d#	8bb
.	.	16B	.
.	8B	16d#	8aa
.	.	16f#	.
=91	=91	=91	=91
2.r	8.e	4g	16gg
.	.	.	16aa
.	.	.	16gg
.	16d#	.	16ff#
.	8e	2r	16gg
.	.	.	16bb
.	8f#	.	16aa
.	.	.	16gg
.	8d#	.	16ff#
.	.	.	16ee
.	8B	.	16dd#
.	.	.	16ff#
=92	=92	=92	=92
2r	8.g	2.r	16bb
.	.	.	16ccc
.	.	.	16bb
.	16f#	.	16aa
.	8g	.	16bb
.	.	.	16ee
.	8a	.	16ccc
.	.	.	16bb
8r	8f#	.	16aa
.	.	.	16gg
8D	8d	.	16ff#
.	.	.	16ccc
=93	=93	=93	=93
8.G	16b	4dd	4bb
.	16cc	.	.
.	16b	.	.
16F#	16a	.	.
8G	16b	8gg	4.r
.	16dd	.	.
8A	16cc	16ff#	.
.	16b	16gg	.
8F#	16a	16aa	.
.	16g	16bb	.
8D	16f#	16ccc	8dd
.	16a	16ff#	.
=94	=94	=94	=94
8.B	16dd	4gg	8.gg
.	16ee	.	.
.	16dd	.	.
16A	16cc	.	16ff#
16G	16b	4r	8gg
16B	16a	.	.
8d	16g	.	8aa
.	16f#	.	.
8D	16a	8cc	8ff#
.	16g	.	.
8D	16f#	8a	8dd
.	16e	.	.
=95	=95	=95	=95
8G	16d	4b	8.bb
.	16g	.	.
8GG	16b	.	.
.	16cc#	.	16aa#
8GG	16dd	4r	8bb
.	16b	.	.
4.FF#	16b	.	8ccc#
.	16a#	.	.
.	16cc#	8ee	8aa#
.	16b	.	.
.	16a#	8a#	8ff#
.	16g#	.	.
=96	=96	=96	=96
4.BB	16f#	4b	8.ddd
.	16b	.	.
.	16dd	.	.
.	16ee	.	16ccc#
.	16ff#	4r	8ddd
.	16dd	.	.
4AA	16dd	.	8eee
.	16cc#	.	.
.	16ee	8gg	8ccc#
.	16dd	.	.
8G	16cc#	8ee	8aa
.	16b	.	.
=97	=97	=97	=97
16F#	4a	8.dd	4fff#
16A	.	.	.
16F#	.	.	.
16A	.	16cc#	.
16F#	8r	8dd	4r
16A	.	.	.
16G	8.e	8ee	.
16A	.	.	.
16G	.	8cc#	8r
16A	16f#	.	.
16G	8e	8a	8aa
16A	.	.	.
=98	=98	=98	=98
4F#	16f#	4aa	8.ddd
.	16a	.	.
.	16f#	.	.
.	16a	.	16ccc#
2r	16f#	4.r	8ddd
.	16a	.	.
.	16g	.	8eee
.	16a	.	.
.	16g	.	8ccc#
.	16a	.	.
.	16g	8a	8aa
.	16a	.	.
=99	=99	=99	=99
16F#	4f#	8.dd	4fff#
16A	.	.	.
16F#	.	.	.
16A	.	16cc#	.
16F#	8r	8dd	4r
16A	.	.	.
16G	8.e	8ee	.
16A	.	.	.
16G	.	8cc#	8r
16A	16f#	.	.
16G	8e	8a	8aa
16A	.	.	.
=100	=100	=100	=100
16F#	8.d	16aa	8.ddd
16G	.	16bb	.
16F#	.	16aa	.
16E	16e	16gg	16ccc#
16D	16d	16ff#	8ddd
16C#	16c#	16ee	.
4BB	4.B	4.dd	8fff#
.	.	.	8ddd
8E	.	.	8gg#
=101	=101	=101	=101
[2.AA	16A	16cc#	2aa
.	16B	16dd	.
.	16c#	16ee	.
.	16d	16ff#	.
.	16e	16gg	.
.	16d#	16ff#	.
.	8e	8gg	.
.	8c#	8ee	8gg
.	16a	8ee	8ee
.	16g	.	.
=102	=102	=102	=102
2.AA_	16f#	8.dd	4dd
.	16g	.	.
.	16f#	.	.
.	16e	16cc#	.
.	16f#	8dd	4.r
.	8d	.	.
.	.	8ee	.
.	16c#	.	.
.	[4e	8cc#	.
.	.	8a	8a
=103	=103	=103	=103
2.AA_	16e]	8ff#	8.ff#
.	16d	.	.
.	[4f#	2r	.
.	.	.	16ee
.	.	.	8ff#
.	16f#]	.	8gg
.	16e	.	.
.	[4g	.	8ee
.	.	8r	8cc#
=104	=104	=104	=104
2.AA_	16g]	4.r	8aa
.	16f#	.	.
.	16a	.	8ff#
.	16g	.	.
.	16f#	.	8dd#
.	16e	.	.
.	8d#	8ff#	8bb
.	8e	8gg	16gg
.	.	.	16ee
.	8c#	8ee	8aa
=105	=105	=105	=105
2.AA_	8d	8ff#	16ff#
.	.	.	16dd
.	8b	8dd	8gg
.	8cc#	8ee	16ee
.	.	.	16cc#
.	8a	8cc#	8ff#
.	8b	8dd	16dd
.	.	.	16b
.	8g#	8b	8ee
=106	=106	=106	=106
2.AA]	4g	4e	16cc#
.	.	.	16a
.	.	.	16cc#
.	.	.	16a
.	8f#	8f#	16dd
.	.	.	16a
.	8e	8c#	16ee
.	.	.	16a
.	8d	8d	16ff#
.	.	.	16a
.	8c#	8e	16gg
.	.	.	16a
=107	=107	=107	=107
8D	16d	16f#	8.ff#
.	16A	16a	.
8d	16d	16f#	.
.	16A	16a	16ee
2r	16d	16f#	16dd
.	16A	16a	16cc#
.	16d	16f#	16b
.	16A	16a	16a
.	16d	16f#	16g
.	16A	16a	16f#
.	16d	16f#	16e
.	16A	16a	16d
=108	=108	=108	=108
8.G	16c#	16e	8c#
.	16A	16a	.
.	16c#	16e	8ee
16F#	16A	16a	.
16E	16c#	16e	4.r
16D	16A	16a	.
16C#	16c#	16g	.
16BB	16A	16a	.
16AA	16c#	16g	.
16GG	16A	16a	.
16FF#	16c#	16g	8r
16EE	16A	16a	.
=109	=109	=109	=109
8DD	16d	16f#	8.ff#
.	16A	16a	.
8D	16d	16f#	.
.	16A	16a	16ee
2r	16d	16f#	16dd
.	16A	16a	16cc#
.	16d	16f#	16b
.	16A	16a	16a
.	16d	16f#	16g
.	16A	16a	16f#
.	16d	16f#	16e
.	16A	16a	16d
=110	=110	=110	=110
8.G	16c#	16e	8c#
.	16A	16a	.
.	16c#	16e	8ee
16F#	16A	16a	.
16E	16c#	16e	4.r
16D	16A	16a	.
16C#	16c#	16g	.
16BB	16A	16a	.
16AA	16c#	16g	.
16GG	16A	16a	.
16FF#	16c#	16g	8r
16EE	16A	16a	.
=111	=111	=111	=111
8DD	16c	16f#	8.aa
.	16A	16a	.
8D	16c	16f#	.
.	16A	16a	16gg
2r	16c	16f#	16ff#
.	16A	16a	16ee
.	16c	16f#	16dd
.	16A	16a	16cc
.	16c	16f#	16b
.	16A	16a	16a
.	16c	16f#	16g
.	16A	16a	16f#
=112	=112	=112	=112
4GG	4B	8g	8g
.	.	8gg	8bb
2r	2r	8r	8r
.	.	8g	8e
.	.	8ee	8gg
.	.	8r	8r
=113	=113	=113	=113
4AA	4A	8d	8f#
.	.	8ff#	8aa
8r	8r	8r	8r
4AA	4g	8c#	8a
.	.	8ee	8ccc#
8r	8r	8r	8r
=114	=114	=114	=114
16DD	16f#	8d	8.fff#
16AA	16A	.	.
16DD	16f#	8ff#	.
16AA	16A	.	16eee
16DD	16f#	2r	16ddd
16AA	16A	.	16ccc#
16DD	16f#	.	16bb
16AA	16A	.	16aa
16DD	16f#	.	16gg
16AA	16A	.	16ff#
16DD	16f#	.	16ee
16AA	16A	.	16dd
=115	=115	=115	=115
16CC#	16e	8.gg	8cc#
16AA	16A	.	.
16CC#	16e	.	8ggg
16AA	16A	16ff#	.
16CC#	16e	16ee	4.r
16AA	16A	16dd	.
16CC#	16g	16cc#	.
16AA	16A	16b	.
16CC#	16g	16a	.
16AA	16A	16g	.
16CC#	16g	16f#	8r
16AA	16A	16e	.
=116	=116	=116	=116
16DD	16f#	8d	8.fff#
16AA	16A	.	.
16DD	16f#	8ff#	.
16AA	16A	.	16eee
16DD	16f#	2r	16ddd
16AA	16A	.	16ccc#
16DD	16f#	.	16bb
16AA	16A	.	16aa
16DD	16f#	.	16gg
16AA	16A	.	16ff#
16DD	16f#	.	16ee
16AA	16A	.	16dd
=117	=117	=117	=117
16CC#	16e	8.gg	8cc#
16AA	16A	.	.
16CC#	16e	.	8ggg
16AA	16A	16ff#	.
16CC#	16e	16ee	4.r
16AA	16A	16dd	.
16CC#	16g	16cc#	.
16AA	16A	16b	.
16CC#	16g	16a	.
16AA	16A	16g	.
16CC#	16g	16f#	8r
16AA	16A	16e	.
=118	=118	=118	=118
16CC	16f#	8d	8.aaa
16AA	16d	.	.
16CC	16f#	8aa	.
16AA	16d	.	16ggg
16CC	16f#	2r	16fff#
16AA	16d	.	16eee
16CC	16f#	.	16ddd
16AA	16d	.	16ccc
16CC	16f#	.	16bb
16AA	16d	.	16aa
16CC	16f#	.	16gg
16AA	16d	.	16ff#
=119	=119	=119	=119
4BB	4B	8d	8gg
.	.	8dd	8ggg
2r	2r	8r	8r
.	.	8g	8e
.	.	8ee	8gg
.	.	8r	8r
=120	=120	=120	=120
4AA	4A	8d	8f#
.	.	8ff#	8aa
8r	8r	8r	8r
4AA	4g	8c#	8e
.	.	8ee	8ccc#
8r	8r	8r	8r
=121	=121	=121	=121
8D	8.D	8.ddd	8d
8DD	.	.	8ddd
.	16E	16ccc#	.
2r	16F#	16bb	4.r
.	16G	16aa	.
.	16A	16gg	.
.	16B	16ff#	.
.	16c#	16ee	.
.	16d	16dd	.
.	16e	16cc#	8r
.	16f#	16b	.
=122	=122	=122	=122
8.AA	8g	8a	8.gg
.	8C#	8eee	.
16BB	.	.	16ff#
16C#	2r	2r	16ee
16D	.	.	16dd
16E	.	.	16cc#
16F#	.	.	16b
16G	.	.	16a
16A	.	.	16g
16B	.	.	16f#
16c#	.	.	16e
=123	=123	=123	=123
8d	8.D	8.ddd	8d
8DD	.	.	8ff#
.	16E	16ccc#	.
2r	16F#	16bb	4.r
.	16G	16aa	.
.	16A	16gg	.
.	16B	16ff#	.
.	16c#	16ee	.
.	16d	16dd	.
.	16e	16cc#	8r
.	16f#	16b	.
=124	=124	=124	=124
8.AA	8g	8a	8.gg
.	8C#	8eee	.
16BB	.	.	16ff#
16C#	2r	2r	16ee
16D	.	.	16dd
16E	.	.	16cc#
16F#	.	.	16b
16G	.	.	16a
16A	.	.	16g
16B	.	.	16f#
16c#	.	.	16e
=125	=125	=125	=125
8d	8f#	8A	8d
8A	8d	8d	8f#
8F#	8a	8f#	8a
8D	8f#	8a	8dd
8AA	8d	8dd	8ff#
8FF#	8A	8ff#	8aa
=126	=126	=126	=126
4DD	4F#	4aa	4ddd
8r	8r	8r	8r
4DD	4d 4D 4A	4d 4ff# 4a	4ff# 4a 4d
8r	8r	8r	8r
=127	=127	=127	=127
4DD	4d 4A 4D	4ff# 4a 4d	4ff# 4a 4d
2r	2r	2r	4.r
.	.	.	8r
==	==	==	==
*-	*-	*-	*-
!!!RWG1: This file contains only pitch and duration data.
!!!RWG2: Transposing instruments are not transposed.
!!!RWG3: Spines may have incompatible meters.
!!!RWG4: Durations of rests and tied notes may be interpreted.
!!!RWG: Key is interpreted using the Humdrum key tool.
!!!GTL: 6 Quartetti ("Erdödy")
!!!AFT: stage1
!!!END: 1997/04/15
!!!KEY: 1831626058
!!!EMD: Converted from MuseData to Humdrum Dec 16, 2000, by Andreas Kornstaedt using muse2kern.
!!!EMD: Manual editing by Craig Sapp, Nov 2001
